icons/kafka-filled.svg

<svg width="256" height="256" viewBox="0 0 256 256" fill="none" xmlns="http://www.w3.org/2000/svg">
<rect width="256" height="256" rx="60" fill="#A9CBD4"/>
<g clip-path="url(#clip0_702_141)">
<path d="M162.998 138.677C155.218 138.677 148.244 142.124 143.468 147.55L131.23 138.886C132.529 135.31 133.275 131.469 133.275 127.449C133.275 123.499 132.555 119.722 131.299 116.199L143.509 107.627C148.285 113.025 155.241 116.453 162.998 116.453C177.356 116.453 189.04 104.772 189.04 90.4111C189.04 76.0505 177.356 64.3689 162.998 64.3689C148.639 64.3689 136.956 76.0505 136.956 90.4111C136.956 92.9814 137.344 95.46 138.041 97.8074L125.822 106.384C120.718 100.051 113.368 95.6302 104.995 94.2806V79.5542C116.791 77.0766 125.68 66.5956 125.68 54.072C125.68 39.7114 113.996 28.0298 99.6375 28.0298C85.2788 28.0298 73.5953 39.7114 73.5953 54.072C73.5953 66.4279 82.2533 76.7796 93.8138 79.4341V94.3517C78.0368 97.1211 66 110.89 66 127.449C66 144.089 78.156 157.908 94.0469 160.583V176.335C82.3682 178.902 73.5953 189.317 73.5953 201.757C73.5953 216.118 85.2788 227.8 99.6375 227.8C113.996 227.8 125.68 216.118 125.68 201.757C125.68 189.317 116.907 178.902 105.228 176.335V160.583C113.271 159.228 120.548 154.996 125.703 148.675L138.023 157.395C137.339 159.721 136.956 162.175 136.956 164.72C136.956 179.08 148.639 190.762 162.998 190.762C177.356 190.762 189.04 179.08 189.04 164.72C189.04 150.359 177.356 138.677 162.998 138.677ZM162.998 77.7846C169.961 77.7846 175.624 83.4502 175.624 90.4111C175.624 97.372 169.961 103.037 162.998 103.037C156.035 103.037 150.372 97.372 150.372 90.4111C150.372 83.4502 156.035 77.7846 162.998 77.7846ZM87.011 54.072C87.011 47.1111 92.6747 41.446 99.6375 41.446C106.6 41.446 112.264 47.1111 112.264 54.072C112.264 61.0329 106.6 66.698 99.6375 66.698C92.6747 66.698 87.011 61.0329 87.011 54.072ZM112.264 201.757C112.264 208.718 106.6 214.383 99.6375 214.383C92.6747 214.383 87.011 208.718 87.011 201.757C87.011 194.797 92.6747 189.131 99.6375 189.131C106.6 189.131 112.264 194.797 112.264 201.757ZM99.6365 145.058C89.9255 145.058 82.0255 137.16 82.0255 127.449C82.0255 117.738 89.9255 109.838 99.6365 109.838C109.347 109.838 117.247 117.738 117.247 127.449C117.247 137.16 109.347 145.058 99.6365 145.058ZM162.998 177.346C156.035 177.346 150.372 171.68 150.372 164.72C150.372 157.759 156.035 152.094 162.998 152.094C169.961 152.094 175.624 157.759 175.624 164.72C175.624 171.68 169.961 177.346 162.998 177.346Z" fill="black"/>
</g>
<defs>
<clipPath id="clip0_702_141">
<rect width="123.04" height="200" fill="white" transform="translate(66 28)"/>
</clipPath>
</defs>
</svg>

<svg xmlns="http://www.w3.org/2000/svg" width="256" height="256" fill="none"><rect width="256" height="256" fill="#A9CBD4" rx="60"/><g clip-path="url(#clip0_702_141)"><path fill="#000" d="M162.998 138.677c-7.78 0-14.754 3.447-19.53 8.873l-12.238-8.664c1.299-3.576 2.045-7.417 2.045-11.437 0-3.95-.72-7.727-1.976-11.25l12.21-8.572c4.776 5.398 11.732 8.826 19.489 8.826 14.358 0 26.042-11.681 26.042-26.042 0-14.36-11.684-26.042-26.042-26.042S136.956 76.05 136.956 90.41c0 2.57.388 5.049 1.085 7.396l-12.219 8.577a33.6 33.6 0 0 0-20.827-12.103V79.554c11.796-2.477 20.685-12.958 20.685-25.482 0-14.36-11.684-26.042-26.043-26.042S73.596 39.71 73.596 54.072c0 12.356 8.658 22.708 20.219 25.362v14.918C78.037 97.122 66 110.89 66 127.449c0 16.64 12.156 30.459 28.047 33.134v15.752c-11.679 2.567-20.452 12.982-20.452 25.422 0 14.361 11.684 26.043 26.043 26.043s26.042-11.682 26.042-26.043c0-12.44-8.773-22.855-20.452-25.422v-15.752a33.63 33.63 0 0 0 20.475-11.908l12.32 8.72a26 26 0 0 0-1.067 7.325c0 14.36 11.683 26.042 26.042 26.042 14.358 0 26.042-11.682 26.042-26.042s-11.684-26.043-26.042-26.043m0-60.892c6.963 0 12.626 5.665 12.626 12.626s-5.663 12.626-12.626 12.626-12.626-5.665-12.626-12.626 5.663-12.626 12.626-12.626M87.011 54.072c0-6.96 5.664-12.626 12.627-12.626 6.962 0 12.626 5.665 12.626 12.626S106.6 66.698 99.638 66.698c-6.963 0-12.627-5.665-12.627-12.626m25.253 147.685c0 6.961-5.664 12.626-12.626 12.626-6.963 0-12.627-5.665-12.627-12.626s5.664-12.626 12.627-12.626c6.962 0 12.626 5.666 12.626 12.626m-12.627-56.699c-9.711 0-17.612-7.898-17.612-17.609s7.9-17.611 17.611-17.611 17.611 7.9 17.611 17.611-7.9 17.609-17.61 17.609m63.361 32.288c-6.963 0-12.626-5.666-12.626-12.626 0-6.961 5.663-12.626 12.626-12.626s12.626 5.665 12.626 12.626-5.663 12.626-12.626 12.626"/></g><defs><clipPath id="clip0_702_141"><path fill="#fff" d="M66 28h123.04v200H66z"/></clipPath></defs></svg>
